X: 41361
T: Turnpike, The
R: reel
M: 4/4
K: Amajor
|:(3EFG|ABcA BGAF|ECEF Aceg|agae fdec|(3dcB cA BAFG|
ABcA BGAF|ECEF Aceg|agae fdec|dBGB A2:|
|:AF|E2GE BEGB|A2cA eAcA|B2^dB fBdB|e2ge bege|
(aga)e fdec|defg a2fg|((3aga) af gece|dBGB A2:|

